X: 861
T: The Cliffs of Moher
N:"Collected by F.O'Neill"
B:O'Neill's 861
Z:Transcribed by Dan G. Petersen, dangp@post6.tele.dk
M:6/8
L:1/8
K:G
d|gfg agf|dgg fdc|AGG (A/G/FE)|DGG AGG|
gfg agf|dgg fdc|AGG (A/G/FE)|DGG G2:|
A|ded cAA|ded cAG|(F/G/A).B cAG|(F/G/A).B Tc2A|
ded cAA|ded cAG|(F/G/A).B cAG|FGG G2:|


